gloss/img/cart.svg

<svg width="22" height="22" viewBox="0 0 22 22" fill="none" xmlns="http://www.w3.org/2000/svg">
<path d="M14.6109 16.3308C15.0824 16.3308 15.5346 16.5181 15.868 16.8515C16.2014 17.1849 16.3887 17.6371 16.3887 18.1086C16.3887 18.5801 16.2014 19.0323 15.868 19.3657C15.5346 19.6991 15.0824 19.8864 14.6109 19.8864C14.1394 19.8864 13.6873 19.6991 13.3539 19.3657C13.0205 19.0323 12.8332 18.5801 12.8332 18.1086C12.8332 17.6371 13.0205 17.1849 13.3539 16.8515C13.6873 16.5181 14.1394 16.3308 14.6109 16.3308ZM14.6109 17.2197C14.3752 17.2197 14.1491 17.3134 13.9824 17.4801C13.8157 17.6468 13.722 17.8729 13.722 18.1086C13.722 18.3444 13.8157 18.5705 13.9824 18.7372C14.1491 18.9039 14.3752 18.9975 14.6109 18.9975C14.8467 18.9975 15.0728 18.9039 15.2395 18.7372C15.4062 18.5705 15.4998 18.3444 15.4998 18.1086C15.4998 17.8729 15.4062 17.6468 15.2395 17.4801C15.0728 17.3134 14.8467 17.2197 14.6109 17.2197ZM6.61093 16.3308C7.08242 16.3308 7.53461 16.5181 7.868 16.8515C8.2014 17.1849 8.3887 17.6371 8.3887 18.1086C8.3887 18.5801 8.2014 19.0323 7.868 19.3657C7.53461 19.6991 7.08242 19.8864 6.61093 19.8864C6.13943 19.8864 5.68724 19.6991 5.35385 19.3657C5.02045 19.0323 4.83315 18.5801 4.83315 18.1086C4.83315 17.6371 5.02045 17.1849 5.35385 16.8515C5.68724 16.5181 6.13943 16.3308 6.61093 16.3308ZM6.61093 17.2197C6.37518 17.2197 6.14909 17.3134 5.98239 17.4801C5.81569 17.6468 5.72204 17.8729 5.72204 18.1086C5.72204 18.3444 5.81569 18.5705 5.98239 18.7372C6.14909 18.9039 6.37518 18.9975 6.61093 18.9975C6.84667 18.9975 7.07277 18.9039 7.23947 18.7372C7.40616 18.5705 7.49981 18.3444 7.49981 18.1086C7.49981 17.8729 7.40616 17.6468 7.23947 17.4801C7.07277 17.3134 6.84667 17.2197 6.61093 17.2197ZM16.3887 5.66417H4.18426L6.45093 10.9975H13.722C14.0154 10.9975 14.2732 10.8553 14.4332 10.6419L17.0998 7.08639C17.2154 6.93528 17.2776 6.74861 17.2776 6.55306C17.2776 6.31731 17.184 6.09122 17.0173 5.92452C16.8506 5.75782 16.6245 5.66417 16.3887 5.66417ZM13.722 11.8864H6.49537L5.81093 13.2731L5.72204 13.6642C5.72204 13.8999 5.81569 14.126 5.98239 14.2927C6.14909 14.4594 6.37518 14.5531 6.61093 14.5531H16.3887V15.442H6.61093C6.13943 15.442 5.68724 15.2547 5.35385 14.9213C5.02045 14.5879 4.83315 14.1357 4.83315 13.6642C4.83288 13.3626 4.90935 13.0659 5.05537 12.8019L5.69537 11.4953L2.4687 3.88639H1.27759V2.9975H3.05537L3.81092 4.77528H16.3887C16.8602 4.77528 17.3124 4.96258 17.6458 5.29598C17.9792 5.62937 18.1665 6.08156 18.1665 6.55306C18.1665 6.9975 18.0154 7.37083 17.7665 7.67306L15.1798 11.1308C14.8598 11.5842 14.3265 11.8864 13.722 11.8864Z" fill="#151515"/>
</svg>

<svg xmlns="http://www.w3.org/2000/svg" width="22" height="22" fill="none"><path fill="#151515" d="M14.61 16.33a1.778 1.778 0 1 1 0 3.556 1.778 1.778 0 0 1 0-3.555m0 .89a.889.889 0 1 0 .001 1.778.889.889 0 0 0 0-1.778m-8-.89a1.778 1.778 0 1 1 0 3.556 1.778 1.778 0 0 1 0-3.555m0 .89a.889.889 0 1 0 .001 1.778.889.889 0 0 0 0-1.778M16.39 5.664H4.184l2.267 5.334h7.271a.89.89 0 0 0 .711-.356L17.1 7.086a.889.889 0 0 0-.711-1.422m-2.667 6.222H6.495l-.684 1.387-.089.391a.89.89 0 0 0 .889.89h9.778v.888H6.61a1.778 1.778 0 0 1-1.556-2.64l.64-1.307L2.47 3.886H1.278v-.889h1.777l.756 1.778h12.578a1.778 1.778 0 0 1 1.378 2.898l-2.587 3.458c-.32.453-.854.755-1.458.755"/></svg>
